dist/assets/img/svg/icon-vk.svg

<svg width="25" height="15" viewBox="0 0 25 15" fill="none" xmlns="http://www.w3.org/2000/svg">
<path fill-rule="evenodd" clip-rule="evenodd" d="M4.01722 0.333984H1.39803C0.649679 0.333984 0.5 0.680044 0.5 1.06153C0.5 1.74299 1.38797 5.12265 4.63454 9.59253C6.79892 12.6451 9.84831 14.2998 12.6232 14.2998C14.2881 14.2998 14.4941 13.9323 14.4941 13.2993V10.9921C14.4941 10.2571 14.6518 10.1104 15.1789 10.1104C15.5675 10.1104 16.2334 10.3012 17.7874 11.773C19.5633 13.5173 19.8561 14.2998 20.8549 14.2998H23.4741C24.2225 14.2998 24.5967 13.9323 24.3808 13.207C24.1446 12.4842 23.2967 11.4354 22.1716 10.1922C21.5611 9.48353 20.6455 8.7204 20.368 8.33877C19.9795 7.8482 20.0905 7.63011 20.368 7.19408C20.368 7.19408 23.559 2.77867 23.8921 1.27969C24.0585 0.73451 23.8921 0.333984 23.1 0.333984H20.4808C19.8148 0.333984 19.5078 0.680044 19.3412 1.06153C19.3412 1.06153 18.0093 4.25045 16.1225 6.32188C15.512 6.92145 15.2345 7.11227 14.9015 7.11227C14.735 7.11227 14.494 6.92146 14.494 6.37642V1.27969C14.494 0.625503 14.3007 0.333984 13.7457 0.333984H9.62977C9.21364 0.333984 8.9633 0.637558 8.9633 0.925328C8.9633 1.54541 9.90674 1.68845 10.004 3.43279V7.22135C10.004 8.05195 9.85123 8.20256 9.51829 8.20256C8.63036 8.20256 6.47047 4.99939 5.18946 1.33416C4.93844 0.621755 4.68661 0.333984 4.01722 0.333984Z" fill="white" fill-opacity="0.7"/>
</svg>

<svg width="25" height="15" fill="none" xmlns="http://www.w3.org/2000/svg"><path fill-rule="evenodd" clip-rule="evenodd" d="M4.017.334H1.398C.65.334.5.68.5 1.062c0 .681.888 4.06 4.135 8.53 2.164 3.053 5.213 4.708 7.988 4.708 1.665 0 1.871-.368 1.871-1v-2.308c0-.735.158-.882.685-.882.389 0 1.054.191 2.608 1.663 1.776 1.744 2.07 2.527 3.068 2.527h2.62c.747 0 1.122-.368.906-1.093-.236-.723-1.084-1.772-2.21-3.015-.61-.708-1.526-1.472-1.803-1.853-.388-.49-.277-.709 0-1.145 0 0 3.191-4.415 3.524-5.914.166-.545 0-.946-.792-.946h-2.62c-.665 0-.972.346-1.139.728 0 0-1.332 3.188-3.219 5.26-.61.6-.887.79-1.22.79-.167 0-.408-.19-.408-.736V1.28c0-.654-.193-.946-.748-.946H9.63c-.416 0-.667.304-.667.591 0 .62.944.763 1.041 2.508V7.22c0 .83-.153.982-.486.982-.888 0-3.048-3.204-4.329-6.869-.25-.712-.502-1-1.172-1z" fill="#fff" fill-opacity=".7"/></svg>
